app/img/dollar/white.svg

<?xml version="1.0" encoding="UTF-8" standalone="no"?>
<svg width="18px" height="18px" viewBox="0 0 18 18" version="1.1" xmlns="http://www.w3.org/2000/svg" xmlns:xlink="http://www.w3.org/1999/xlink">
    <!-- Generator: Sketch 48.2 (47327) - http://www.bohemiancoding.com/sketch -->
    <title>icn / site-select / dollar / white</title>
    <desc>Created with Sketch.</desc>
    <defs>
        <path d="M12.7824268,5.04631322 C12.7824268,5.58449945 12.3461406,5.93298278 11.8079544,5.93298278 C11.5935287,5.93298278 11.3850897,5.86225827 11.2149395,5.73176956 C10.4413313,5.13844043 9.7599513,4.9295933 9.17082209,4.9295933 C8.03055854,4.9295933 7.0211399,5.20172747 7.0211399,6.37233394 C7.0211399,7.54294042 8.3291412,7.71729433 9.56273498,8.10713877 C11.0578343,8.57962506 13,9.00487508 13,11.4521633 C13,13.3436929 11.7529706,14.6260388 9.87012537,14.957544 L9.87012537,15.72273 C9.87012537,16.5807434 9.69456067,17 9.05857741,17 L8.9748954,17 C8.29707113,17 8.1415224,16.6099939 8.1415224,15.72273 L8.1415224,14.9965446 C6.19173161,14.7527908 5,13.7531993 5,12.709933 C5,12.1995536 5.41374425,11.7858093 5.92412365,11.7858093 C6.13873748,11.7858093 6.34666008,11.8605058 6.5122095,11.9970799 C7.36536004,12.7009515 8.19463072,13.0528742 9,13.0528742 C10.0339204,13.0528742 11.2151215,12.5096799 11.2151215,11.559415 C11.2151215,10.4248431 9.71588419,10.2130515 8.53596787,9.90104659 C7.12174193,9.54029096 5.23430962,8.91712371 5.23430962,6.44058501 C5.23430962,4.63680683 6.40930483,3.3799612 8.1415224,2.99970526 L8.1415224,2.27726996 C8.1415224,1.41925655 8.33891213,1 8.9832636,1 L9.08368201,1 C9.74476987,1 9.87012537,1.39000609 9.87012537,2.27726996 L9.87012537,2.99970526 C11.6692886,3.23370891 12.7824268,4.08104814 12.7824268,5.04631322 Z" id="path-1"></path>
    </defs>
    <g id="Symbols" stroke="none" stroke-width="1" fill="none" fill-rule="evenodd">
        <g id="icn-/-site-select-/-dollar-/-white">
            <mask id="mask-2" fill="white">
                <use xlink:href="#path-1"></use>
            </mask>
            <use id="glyph" fill="#FFFFFF" fill-rule="nonzero" xlink:href="#path-1"></use>
        </g>
    </g>
</svg>

<svg width="18" height="18" xmlns="http://www.w3.org/2000/svg" xmlns:xlink="http://www.w3.org/1999/xlink"><defs><path d="M12.782 5.046c0 .538-.436.887-.974.887a.974.974 0 0 1-.593-.201C10.44 5.138 9.76 4.93 9.17 4.93c-1.14 0-2.15.272-2.15 1.442S8.33 7.717 9.563 8.107C11.058 8.58 13 9.005 13 11.452c0 1.892-1.247 3.174-3.13 3.506v.765C9.87 16.58 9.695 17 9.06 17h-.084c-.678 0-.833-.39-.833-1.277v-.726C6.192 14.753 5 13.753 5 12.71a.924.924 0 0 1 1.512-.713c.853.704 1.683 1.056 2.488 1.056 1.034 0 2.215-.543 2.215-1.494 0-1.134-1.5-1.346-2.679-1.658-1.414-.36-3.302-.984-3.302-3.46C5.234 4.637 6.41 3.38 8.142 3v-.723c0-.858.197-1.277.841-1.277h.1c.662 0 .787.39.787 1.277V3c1.8.234 2.912 1.081 2.912 2.046z" id="a"/></defs><use fill="#FFF" fill-rule="nonzero" xlink:href="#a"/></svg>
